src/__fixtures__/lut_exists.cube
TITLE Test LUT
LUT_3D_SIZE 2
0.0 0.0 0.0
1.0 1.0 1.0
0.0 0.0 0.0
1.0 1.0 1.0
0.0 0.0 0.0
1.0 1.0 1.0
0.0 0.0 0.0
1.0 1.0 1.0
